X:1
T:Edina, 65.65 D
T:Edina, 65.65 D
T:Herbert Stanley Oakeley, 1868
T:Public Domain Courtesy of the Cyber Hymnal™
C:Herbert Stanley Oakeley, 1868
Z:Public Domain
Z:Courtesy of the Cyber Hymnal™
%%score ( 1 2 ) ( 3 4 )
L:1/8
Q:1/4=115
M:4/4
K:G
V:1 treble 
V:2 treble 
V:3 bass 
V:4 bass 
V:1
 [B,D]2 [CE]2 [DF]2 [DG]2 | c4 [DB]4 | [GB]2 d2 [EG]2 [DA]2 | [DB]8 | [DA]2 [DB]2 [Cc]2 [Gd]2 | %5
 e4 [Gd]4 | E2 [CF]2 [B,G]2 [CA]2 | [B,G]8 | [EB]2 [EG]2 F3 z x | [B,E]4 [B,^D]4 | %10
 [B,F]2 [^DF]2 ^G3 z x | F8 | [Gd]2 [GB]2 A3 z x | [DG]4 [DF]4 | [DG]2 [CG]2 [CA]3 [B,G] | %15
 [B,G]8 |] %16
V:2
 x8 | (C2 D2) x4 | x2 (GF) x4 | x8 | x8 | (G2 F2) x4 | x8 | x8 | x4 C2 (C2 E) | x8 | x4 E2 (E2 F) | %11
 ^D6 =D2 | x4 E2 (E2 G) | x8 | x8 | x8 |] %16
V:3
 G,2 [C,G,]2 [A,C]2 [G,B,]2 | ([E,G,]2 [F,A,]2) [G,B,]4 | [E,B,]2 [B,,G,]2 [C,G,]2 [A,,F,]2 | %3
 [G,,G,]8 | [D,F,]2 [B,,^G,]2 [A,,A,]2 [^G,,B,]2 | (C2 A,2) [G,B,]4 | %6
 [C,G,]2 [A,,A,]2 [E,G,]2 [D,F,]2 | G,8 | [E,G,]2 [E,B,]2 A,3 z x | [B,,G,]4 [B,,F,]4 | %10
 [F,^D]2 [F,B,]2 B,2 z F, x | [B,,B,]6 [A,,A,C]2 | [G,B,]2 [G,D]2 C3 z x | [D,B,]4 [D,A,]4 | %14
 [B,,B,]2 [E,G,]2 (G,2 F,)[G,,G,] | [G,,D,G,]8 |] %16
V:4
 G,2 x6 | x8 | x8 | x8 | x8 | C,4 x4 | x8 | G,8 | x4 A,,2 (A,,2 G,) | x8 | x4 F,3 ^A,2 | x8 | %12
 G,,4 C,2 (C,2 B,) | x8 | x4 D,3 x | x8 |] %16

